Hatter-kde/status/24/bluetooth-disabled-50-symbolic.svg

<?xml version="1.0" encoding="UTF-8" standalone="no"?>
<svg
   xmlns:dc="http://purl.org/dc/elements/1.1/"
   xmlns:cc="http://creativecommons.org/ns#"
   xmlns:rdf="http://www.w3.org/1999/02/22-rdf-syntax-ns#"
   xmlns:svg="http://www.w3.org/2000/svg"
   xmlns="http://www.w3.org/2000/svg"
   id="svg6"
   version="1.1"
   width="24"
   height="24">
  <defs
     id="defs10" />
  <path
     id="path2"
     d="M 6.3515625 4.7363281 L 5.4121094 5.6777344 L 12.183594 12.449219 L 10.882812 12.449219 L 10.494141 12.060547 L 8.3125 13.96875 C 8.002055 14.244997 7.9740835 14.720511 8.25 15.03125 C 8.523 15.34425 8.96825 15.398 9.28125 15.125 L 11.001953 13.625 L 11.001953 18.5 C 11.001953 18.777 11.223953 19 11.501953 19 C 11.783953 19 11.93825 18.9805 12.15625 18.8125 L 15.6875 15.65625 C 15.794435 15.55447 15.87029 15.424432 15.90625 15.28125 C 15.93454 15.19036 15.94515 15.094886 15.9375 15 C 15.9329 14.94692 15.92239 14.894523 15.90625 14.84375 C 15.87029 14.700568 15.794435 14.57053 15.6875 14.46875 L 12.875 11.998047 L 15.6875 9.53125 C 15.794435 9.4294699 15.87029 9.2994324 15.90625 9.15625 C 15.9523 9.0140522 15.9523 8.8609478 15.90625 8.71875 C 15.87029 8.5755676 15.794435 8.4455301 15.6875 8.34375 L 12.15625 5.1875 C 11.95725 5.0275 11.729 5 11.5 5 C 11.223 5 11 5.223 11 5.5 L 11 9.3847656 L 6.3515625 4.7363281 z M 12 7.0625 L 14.09375 8.9375 L 12.195312 10.580078 L 12 10.384766 L 12 7.0625 z M 12 13.25 L 14.09375 15.0625 L 12 16.9375 L 12 13.25 z "
     style="fill:#f2f2f2;marker:none" />
</svg>

<?xml version="1.0" encoding="UTF-8"?>
<svg id="svg6" width="24" height="24" version="1.1" xmlns="http://www.w3.org/2000/svg" xmlns:cc="http://creativecommons.org/ns#" xmlns:dc="http://purl.org/dc/elements/1.1/" xmlns:rdf="http://www.w3.org/1999/02/22-rdf-syntax-ns#">
 <metadata id="metadata12">
  <rdf:RDF>
   <cc:Work rdf:about="">
    <dc:format>image/svg+xml</dc:format>
    <dc:type rdf:resource="http://purl.org/dc/dcmitype/StillImage"/>
    <dc:title/>
   </cc:Work>
  </rdf:RDF>
 </metadata>
 <path id="path2" d="m6.3516 4.7363-0.93945 0.94141 6.7715 6.7715h-1.3008l-0.38867-0.38867-2.1816 1.9082c-0.31044 0.27625-0.33842 0.75176-0.0625 1.0625 0.273 0.313 0.71825 0.36675 1.0312 0.09375l1.7207-1.5v4.875c0 0.277 0.222 0.5 0.5 0.5 0.282 0 0.4363-0.0195 0.6543-0.1875l3.5312-3.1562c0.10694-0.10178 0.18279-0.23182 0.21875-0.375 0.02829-0.09089 0.0389-0.18636 0.03125-0.28125-0.0046-0.05308-0.01511-0.10548-0.03125-0.15625-0.03596-0.14318-0.11182-0.27322-0.21875-0.375l-2.8125-2.4707 2.8125-2.4668c0.10694-0.10178 0.18279-0.23182 0.21875-0.375 0.04605-0.1422 0.04605-0.2953 0-0.4375-0.03596-0.14318-0.11182-0.27322-0.21875-0.375l-3.5312-3.1562c-0.199-0.16-0.42725-0.1875-0.65625-0.1875-0.277 0-0.5 0.223-0.5 0.5v3.8848l-4.6484-4.6484zm5.6484 2.3262 2.0938 1.875-1.8984 1.6426-0.19531-0.19531v-3.3223zm0 6.1875 2.0938 1.8125-2.0938 1.875v-3.6875z" color="#bebebe" fill="#fff"/>
</svg>
